src/img/social/facebook.svg

<svg height="24" viewBox="0 0 24 24" width="24" xmlns="http://www.w3.org/2000/svg"><path d="m24 12.072a12 12 0 1 0 -13.875 11.854v-8.385h-3.047v-3.469h3.047v-2.644c0-3.007 1.792-4.669 4.532-4.669a18.611 18.611 0 0 1 2.687.234v2.954h-1.514a1.734 1.734 0 0 0 -1.947 1.49 1.71 1.71 0 0 0 -.008.385v2.25h3.325l-.532 3.469h-2.8v8.385a12 12 0 0 0 10.132-11.854z" fill="#fff"/></svg>

<svg xmlns="http://www.w3.org/2000/svg" xmlns:xlink="http://www.w3.org/1999/xlink" x="0px" y="0px" width="24px" height="24px" viewBox="0 0 24 24"><g transform="translate(0, 0)"><path d="M24,12.072A12,12,0,1,0,10.125,23.926V15.541H7.078V12.072h3.047V9.428c0-3.007,1.792-4.669,4.532-4.669a18.611,18.611,0,0,1,2.687.234V7.947H15.83a1.734,1.734,0,0,0-1.947,1.49,1.71,1.71,0,0,0-.008.385v2.25H17.2l-.532,3.469h-2.8v8.385A12,12,0,0,0,24,12.072Z" fill="#ffffff"></path></g></svg>
